Newaita-dark/apps/64/bomi.svg

<svg height="64pt" viewBox="0 0 64 64" width="64pt" xmlns="http://www.w3.org/2000/svg" xmlns:xlink="http://www.w3.org/1999/xlink"><linearGradient id="a" gradientUnits="userSpaceOnUse" x1="31.75304" x2="31.75304" y1="56.067872" y2="58.71396000006"><stop offset="0" stop-opacity=".27451"/><stop offset="1" stop-opacity="0"/></linearGradient><linearGradient id="b"><stop offset="0" stop-opacity=".313726"/><stop offset=".222222" stop-opacity=".27451"/><stop offset="1" stop-opacity="0"/></linearGradient><radialGradient id="c" cx="450.908936" cy="189.579361" gradientTransform="matrix(.00000035 -.156265 -.281277 -.0000002 104.261296 127.190665)" gradientUnits="userSpaceOnUse" r="21.166656" xlink:href="#b"/><radialGradient id="d" cx="450.908936" cy="189.579361" gradientTransform="matrix(-.00000035 .156265 .281277 .0000002 -40.755227 -15.054958)" gradientUnits="userSpaceOnUse" r="21.166656" xlink:href="#b"/><radialGradient id="e" cx="450.908936" cy="189.579361" gradientTransform="matrix(-.00000035 -.156265 .281277 -.0000002 -40.755227 127.190665)" gradientUnits="userSpaceOnUse" r="21.166656" xlink:href="#b"/><radialGradient id="f" cx="450.908936" cy="189.579361" gradientTransform="matrix(.00000035 .156265 -.281277 .0000002 104.261293 -15.054959)" gradientUnits="userSpaceOnUse" r="21.166656" xlink:href="#b"/><linearGradient id="g" gradientUnits="userSpaceOnUse" x1="21.16869799994" x2="21.16869799994" y1="56.067868" y2="5.79221000013"><stop offset="0" stop-color="#ec407a"/><stop offset="1" stop-color="#f06292"/></linearGradient><linearGradient id="h" gradientUnits="userSpaceOnUse" x1="31.753056" x2="31.753056" y1="56.06789790428" y2="5.79222438278"><stop offset="0" stop-color="#bdbdbd"/><stop offset="1" stop-color="#e0e0e0"/></linearGradient><path d="m11.90625 55.871094h39.691406v2.941406h-39.691406zm0 0" fill="url(#a)"/><path d="m51.597656 56.066406h5.292969v-2.644531h-5.292969zm0 0" fill="url(#c)"/><path d="m11.90625 56.066406h-5.292969v2.648438h5.292969zm0 0" fill="url(#d)"/><path d="m11.90625 56.066406h-5.292969v-2.644531h5.292969zm0 0" fill="url(#e)"/><path d="m51.597656 56.066406h5.292969v2.648438h-5.292969zm0 0" fill="url(#f)"/><path d="m9.261719 5.792969h44.984375c1.460937 0 2.644531 1.183593 2.644531 2.644531v44.984375c0 1.460937-1.183594 2.644531-2.644531 2.644531h-44.984375c-1.460938 0-2.648438-1.183594-2.648438-2.644531v-44.984375c0-1.460938 1.1875-2.644531 2.648438-2.644531zm0 0" fill="url(#g)"/><path d="m9.261719 5.792969c-1.464844 0-2.648438 1.179687-2.648438 2.644531v.332031c0-1.464843 1.183594-2.648437 2.648438-2.648437h44.984375c1.464844 0 2.644531 1.183594 2.644531 2.648437v-.332031c0-1.464844-1.179687-2.644531-2.644531-2.644531zm0 0" fill="#e6e6e6" fill-opacity=".392157"/><path d="m9.261719 56.066406c-1.464844 0-2.648438-1.179687-2.648438-2.644531v-.332031c0 1.46875 1.183594 2.648437 2.648438 2.648437h44.984375c1.464844 0 2.644531-1.179687 2.644531-2.648437v.332031c0 1.464844-1.179687 2.644531-2.644531 2.644531zm0 0" fill-opacity=".196078"/><path d="m74.086675-168.660675h359.840637c11.686384 0 21.15423 9.467846 21.15423 21.15423v359.840637c0 11.686384-9.467846 21.154229-21.15423 21.154229h-359.840637c-11.686384 0-21.185477-9.467845-21.185477-21.154229v-359.840637c0-11.686384 9.499093-21.15423 21.185477-21.15423zm0 0" fill="none" stroke="#212121" stroke-linecap="round" stroke-width="3" transform="matrix(.125012 0 0 .125012 0 26.877566)"/><path d="m31.753906 15.054688c-1.371094 0-2.703125.171874-3.96875.496093v21.996094c0 1.097656-.886718 1.984375-1.984375 1.984375-1.101562 0-1.984375-.886719-1.984375-1.984375v-20.382813c-4.753906 2.738282-7.941406 7.867188-7.941406 13.765626 0 8.796874 7.082031 15.875 15.878906 15.875 8.792969 0 15.875-7.078126 15.875-15.875 0-8.796876-7.082031-15.875-15.875-15.875zm.039063 7.261718c.402343.011719.792969.140625 1.121093.375l9.261719 6.613282c1.113281.796874 1.113281 2.453124 0 3.25l-9.261719 6.617187c-1.320312.941406-3.15625-.003906-3.15625-1.625v-13.230469c0-1.121094.917969-2.019531 2.035157-2zm0 0" fill="url(#h)"/><path d="m31.753906 15.054688c-1.371094 0-2.703125.171874-3.96875.496093v.992188c1.265625-.324219 2.597656-.496094 3.96875-.496094 8.625 0 15.601563 6.808594 15.867188 15.367187.003906-.160156.007812-.320312.007812-.484374 0-8.796876-7.082031-15.875-15.875-15.875zm-7.9375 2.109374c-4.753906 2.738282-7.941406 7.867188-7.941406 13.765626 0 .167968.003906.332031.007812.5.171876-5.691407 3.3125-10.613282 7.933594-13.273438zm19.082032 14.425782c-.128907.371094-.371094.710937-.722657.964844l-9.261719 6.617187c-1.320312.941406-3.15625-.003906-3.15625-1.625v.992187c0 1.621094 1.835938 2.566407 3.15625 1.625l9.261719-6.617187c.351563-.253906.59375-.59375.722657-.964844.019531.054688.035156.113281.050781.167969.097656-.382812.082031-.785156-.050781-1.160156zm-19.082032 5.957031v.992187c0 1.097657.882813 1.984376 1.984375 1.984376 1.097657 0 1.984375-.886719 1.984375-1.984376v-.992187c0 1.097656-.886718 1.984375-1.984375 1.984375-1.101562 0-1.984375-.886719-1.984375-1.984375zm0 0" fill="#fff"/><path d="m31.792969 22.355469c-1.117188-.023438-2.035157.878906-2.035157 1.996093v1.296876c0-1.117188.917969-2.019532 2.035157-1.996094.402343.007812.792969.136718 1.121093.371094l9.261719 6.617187c.355469.253906.601563.597656.726563.976563.273437-.796876.03125-1.734376-.726563-2.273438l-9.261719-6.617188c-.328124-.234374-.71875-.363281-1.121093-.371093zm15.824219 9.261719c-.339844 8.492187-7.285157 15.226562-15.863282 15.226562s-15.523437-6.734375-15.863281-15.222656c-.007813.210937-.015625.429687-.015625.644531 0 8.796875 7.082031 15.875 15.878906 15.875 8.792969 0 15.875-7.078125 15.875-15.875 0-.21875-.003906-.433594-.011718-.648437zm0 0" fill-opacity=".235294"/><path d="m960.026483 455.153409c-41.452737 0-81.724484 5.196355-119.988548 14.998569v665.015269c0 33.185809-26.808465 59.994274-59.994274 59.994274-33.303908 0-59.994274-26.808465-59.994274-59.994274v-616.240397c-143.72644 82.787374-240.095195 237.851315-240.095195 416.180751 0 265.958868 214.113423 479.954192 480.072291 479.954192 265.840769 0 479.954192-213.995324 479.954192-479.954192s-214.113423-479.954192-479.954192-479.954192zm1.180989 219.545975c12.164194.354297 23.97409 4.251563 33.894403 11.337501l280.012645 199.941547c33.658205 24.092189 33.658205 74.16615 0 98.258338l-280.012645 200.059646c-39.91745 28.461851-95.423963-.118099-95.423963-49.129169v-400.001193c0-33.894403 27.753257-61.057164 61.52956-60.46667zm0 0" fill="none" stroke="#212121" stroke-linecap="round" stroke-linejoin="round" stroke-width="11.338583" transform="scale(.0330761)"/></svg>

<?xml version="1.0" encoding="UTF-8"?>
<svg xmlns="http://www.w3.org/2000/svg" xmlns:xlink="http://www.w3.org/1999/xlink" width="64pt" height="64pt" viewBox="0 0 64 64" version="1.1">
<defs>
<linearGradient id="linear0" gradientUnits="userSpaceOnUse" x1="254" y1="233.5" x2="254" y2="254.666672" gradientTransform="matrix(0.125012,0,0,0.125012,-0.00000763012,26.87757)">
<stop offset="0" style="stop-color:rgb(0%,0%,0%);stop-opacity:0.27451;"/>
<stop offset="1" style="stop-color:rgb(0%,0%,0%);stop-opacity:0;"/>
</linearGradient>
<radialGradient id="radial0" gradientUnits="userSpaceOnUse" cx="450.908936" cy="189.579361" fx="450.908936" fy="189.579361" r="21.166656" gradientTransform="matrix(0.000000348341,-0.156265,-0.281277,-0.000000203077,104.261296,127.190665)">
<stop offset="0" style="stop-color:rgb(0%,0%,0%);stop-opacity:0.313726;"/>
<stop offset="0.222222" style="stop-color:rgb(0%,0%,0%);stop-opacity:0.27451;"/>
<stop offset="1" style="stop-color:rgb(0%,0%,0%);stop-opacity:0;"/>
</radialGradient>
<radialGradient id="radial1" gradientUnits="userSpaceOnUse" cx="450.908936" cy="189.579361" fx="450.908936" fy="189.579361" r="21.166656" gradientTransform="matrix(-0.000000348341,0.156265,0.281277,0.000000203077,-40.755227,-15.054958)">
<stop offset="0" style="stop-color:rgb(0%,0%,0%);stop-opacity:0.313726;"/>
<stop offset="0.222222" style="stop-color:rgb(0%,0%,0%);stop-opacity:0.27451;"/>
<stop offset="1" style="stop-color:rgb(0%,0%,0%);stop-opacity:0;"/>
</radialGradient>
<radialGradient id="radial2" gradientUnits="userSpaceOnUse" cx="450.908936" cy="189.579361" fx="450.908936" fy="189.579361" r="21.166656" gradientTransform="matrix(-0.000000348341,-0.156265,0.281277,-0.000000203077,-40.755227,127.190665)">
<stop offset="0" style="stop-color:rgb(0%,0%,0%);stop-opacity:0.313726;"/>
<stop offset="0.222222" style="stop-color:rgb(0%,0%,0%);stop-opacity:0.27451;"/>
<stop offset="1" style="stop-color:rgb(0%,0%,0%);stop-opacity:0;"/>
</radialGradient>
<radialGradient id="radial3" gradientUnits="userSpaceOnUse" cx="450.908936" cy="189.579361" fx="450.908936" fy="189.579361" r="21.166656" gradientTransform="matrix(0.000000348341,0.156265,-0.281277,0.000000203077,104.261293,-15.054959)">
<stop offset="0" style="stop-color:rgb(0%,0%,0%);stop-opacity:0.313726;"/>
<stop offset="0.222222" style="stop-color:rgb(0%,0%,0%);stop-opacity:0.27451;"/>
<stop offset="1" style="stop-color:rgb(0%,0%,0%);stop-opacity:0;"/>
</radialGradient>
<linearGradient id="linear1" gradientUnits="userSpaceOnUse" x1="169.333328" y1="233.5" x2="169.333328" y2="-168.666656" gradientTransform="matrix(0.125012,0,0,0.125012,0,26.877566)">
<stop offset="0" style="stop-color:rgb(92.54902%,25.098041%,47.843137%);stop-opacity:1;"/>
<stop offset="1" style="stop-color:rgb(94.117647%,38.431373%,57.254905%);stop-opacity:1;"/>
</linearGradient>
<linearGradient id="linear2" gradientUnits="userSpaceOnUse" x1="960" y1="1695.118164" x2="960" y2="175.118118" gradientTransform="matrix(0.0330761,0,0,0.0330761,0,0)">
<stop offset="0" style="stop-color:rgb(74.117649%,74.117649%,74.117649%);stop-opacity:1;"/>
<stop offset="1" style="stop-color:rgb(87.843138%,87.843138%,87.843138%);stop-opacity:1;"/>
</linearGradient>
</defs>
<g id="surface1">
<path style=" stroke:none;fill-rule:nonzero;fill:url(#linear0);" d="M 11.90625 55.871094 L 51.597656 55.871094 L 51.597656 58.8125 L 11.90625 58.8125 Z M 11.90625 55.871094 "/>
<path style=" stroke:none;fill-rule:nonzero;fill:url(#radial0);" d="M 51.597656 56.066406 L 56.890625 56.066406 L 56.890625 53.421875 L 51.597656 53.421875 Z M 51.597656 56.066406 "/>
<path style=" stroke:none;fill-rule:nonzero;fill:url(#radial1);" d="M 11.90625 56.066406 L 6.613281 56.066406 L 6.613281 58.714844 L 11.90625 58.714844 Z M 11.90625 56.066406 "/>
<path style=" stroke:none;fill-rule:nonzero;fill:url(#radial2);" d="M 11.90625 56.066406 L 6.613281 56.066406 L 6.613281 53.421875 L 11.90625 53.421875 Z M 11.90625 56.066406 "/>
<path style=" stroke:none;fill-rule:nonzero;fill:url(#radial3);" d="M 51.597656 56.066406 L 56.890625 56.066406 L 56.890625 58.714844 L 51.597656 58.714844 Z M 51.597656 56.066406 "/>
<path style=" stroke:none;fill-rule:nonzero;fill:url(#linear1);" d="M 9.261719 5.792969 L 54.246094 5.792969 C 55.707031 5.792969 56.890625 6.976562 56.890625 8.4375 L 56.890625 53.421875 C 56.890625 54.882812 55.707031 56.066406 54.246094 56.066406 L 9.261719 56.066406 C 7.800781 56.066406 6.613281 54.882812 6.613281 53.421875 L 6.613281 8.4375 C 6.613281 6.976562 7.800781 5.792969 9.261719 5.792969 Z M 9.261719 5.792969 "/>
<path style=" stroke:none;fill-rule:nonzero;fill:rgb(90.196079%,90.196079%,90.196079%);fill-opacity:0.392157;" d="M 9.261719 5.792969 C 7.796875 5.792969 6.613281 6.972656 6.613281 8.4375 L 6.613281 8.769531 C 6.613281 7.304688 7.796875 6.121094 9.261719 6.121094 L 54.246094 6.121094 C 55.710938 6.121094 56.890625 7.304688 56.890625 8.769531 L 56.890625 8.4375 C 56.890625 6.972656 55.710938 5.792969 54.246094 5.792969 Z M 9.261719 5.792969 "/>
<path style=" stroke:none;fill-rule:nonzero;fill:rgb(0%,0%,0%);fill-opacity:0.196078;" d="M 9.261719 56.066406 C 7.796875 56.066406 6.613281 54.886719 6.613281 53.421875 L 6.613281 53.089844 C 6.613281 54.558594 7.796875 55.738281 9.261719 55.738281 L 54.246094 55.738281 C 55.710938 55.738281 56.890625 54.558594 56.890625 53.089844 L 56.890625 53.421875 C 56.890625 54.886719 55.710938 56.066406 54.246094 56.066406 Z M 9.261719 56.066406 "/>
<path style="fill:none;stroke-width:3;stroke-linecap:round;stroke-linejoin:miter;stroke:rgb(12.941177%,12.941177%,12.941177%);stroke-opacity:1;stroke-miterlimit:4;" d="M 74.086675 -168.660675 L 433.927312 -168.660675 C 445.613696 -168.660675 455.081542 -159.192829 455.081542 -147.506445 L 455.081542 212.334192 C 455.081542 224.020576 445.613696 233.488421 433.927312 233.488421 L 74.086675 233.488421 C 62.400291 233.488421 52.901198 224.020576 52.901198 212.334192 L 52.901198 -147.506445 C 52.901198 -159.192829 62.400291 -168.660675 74.086675 -168.660675 Z M 74.086675 -168.660675 " transform="matrix(0.125012,0,0,0.125012,0,26.877566)"/>
<path style=" stroke:none;fill-rule:nonzero;fill:url(#linear2);" d="M 31.753906 15.054688 C 30.382812 15.054688 29.050781 15.226562 27.785156 15.550781 L 27.785156 37.546875 C 27.785156 38.644531 26.898438 39.53125 25.800781 39.53125 C 24.699219 39.53125 23.816406 38.644531 23.816406 37.546875 L 23.816406 17.164062 C 19.0625 19.902344 15.875 25.03125 15.875 30.929688 C 15.875 39.726562 22.957031 46.804688 31.753906 46.804688 C 40.546875 46.804688 47.628906 39.726562 47.628906 30.929688 C 47.628906 22.132812 40.546875 15.054688 31.753906 15.054688 Z M 31.792969 22.316406 C 32.195312 22.328125 32.585938 22.457031 32.914062 22.691406 L 42.175781 29.304688 C 43.289062 30.101562 43.289062 31.757812 42.175781 32.554688 L 32.914062 39.171875 C 31.59375 40.113281 29.757812 39.167969 29.757812 37.546875 L 29.757812 24.316406 C 29.757812 23.195312 30.675781 22.296875 31.792969 22.316406 Z M 31.792969 22.316406 "/>
<path style=" stroke:none;fill-rule:nonzero;fill:rgb(100%,100%,100%);fill-opacity:1;" d="M 31.753906 15.054688 C 30.382812 15.054688 29.050781 15.226562 27.785156 15.550781 L 27.785156 16.542969 C 29.050781 16.21875 30.382812 16.046875 31.753906 16.046875 C 40.378906 16.046875 47.355469 22.855469 47.621094 31.414062 C 47.625 31.253906 47.628906 31.09375 47.628906 30.929688 C 47.628906 22.132812 40.546875 15.054688 31.753906 15.054688 Z M 23.816406 17.164062 C 19.0625 19.902344 15.875 25.03125 15.875 30.929688 C 15.875 31.097656 15.878906 31.261719 15.882812 31.429688 C 16.054688 25.738281 19.195312 20.816406 23.816406 18.15625 Z M 42.898438 31.589844 C 42.769531 31.960938 42.527344 32.300781 42.175781 32.554688 L 32.914062 39.171875 C 31.59375 40.113281 29.757812 39.167969 29.757812 37.546875 L 29.757812 38.539062 C 29.757812 40.160156 31.59375 41.105469 32.914062 40.164062 L 42.175781 33.546875 C 42.527344 33.292969 42.769531 32.953125 42.898438 32.582031 C 42.917969 32.636719 42.933594 32.695312 42.949219 32.75 C 43.046875 32.367188 43.03125 31.964844 42.898438 31.589844 Z M 23.816406 37.546875 L 23.816406 38.539062 C 23.816406 39.636719 24.699219 40.523438 25.800781 40.523438 C 26.898438 40.523438 27.785156 39.636719 27.785156 38.539062 L 27.785156 37.546875 C 27.785156 38.644531 26.898438 39.53125 25.800781 39.53125 C 24.699219 39.53125 23.816406 38.644531 23.816406 37.546875 Z M 23.816406 37.546875 "/>
<path style=" stroke:none;fill-rule:nonzero;fill:rgb(0%,0%,0%);fill-opacity:0.235294;" d="M 31.792969 22.355469 C 30.675781 22.332031 29.757812 23.234375 29.757812 24.351562 L 29.757812 25.648438 C 29.757812 24.53125 30.675781 23.628906 31.792969 23.652344 C 32.195312 23.660156 32.585938 23.789062 32.914062 24.023438 L 42.175781 30.640625 C 42.53125 30.894531 42.777344 31.238281 42.902344 31.617188 C 43.175781 30.820312 42.933594 29.882812 42.175781 29.34375 L 32.914062 22.726562 C 32.585938 22.492188 32.195312 22.363281 31.792969 22.355469 Z M 47.617188 31.617188 C 47.277344 40.109375 40.332031 46.84375 31.753906 46.84375 C 23.175781 46.84375 16.230469 40.109375 15.890625 31.621094 C 15.882812 31.832031 15.875 32.050781 15.875 32.265625 C 15.875 41.0625 22.957031 48.140625 31.753906 48.140625 C 40.546875 48.140625 47.628906 41.0625 47.628906 32.265625 C 47.628906 32.046875 47.625 31.832031 47.617188 31.617188 Z M 47.617188 31.617188 "/>
<path style="fill:none;stroke-width:11.338583;stroke-linecap:round;stroke-linejoin:round;stroke:rgb(12.941177%,12.941177%,12.941177%);stroke-opacity:1;stroke-miterlimit:4;" d="M 960.026483 455.153409 C 918.573746 455.153409 878.301999 460.349764 840.037935 470.151978 L 840.037935 1135.167247 C 840.037935 1168.353056 813.22947 1195.161521 780.043661 1195.161521 C 746.739753 1195.161521 720.049387 1168.353056 720.049387 1135.167247 L 720.049387 518.92685 C 576.322947 601.714224 479.954192 756.778165 479.954192 935.107601 C 479.954192 1201.066469 694.067615 1415.061793 960.026483 1415.061793 C 1225.867252 1415.061793 1439.980675 1201.066469 1439.980675 935.107601 C 1439.980675 669.148733 1225.867252 455.153409 960.026483 455.153409 Z M 961.207472 674.699384 C 973.371666 675.053681 985.181562 678.950947 995.101875 686.036885 L 1275.11452 885.978432 C 1308.772725 910.070621 1308.772725 960.144582 1275.11452 984.23677 L 995.101875 1184.296416 C 955.184425 1212.758267 899.677912 1184.178317 899.677912 1135.167247 L 899.677912 735.166054 C 899.677912 701.271651 927.431169 674.10889 961.207472 674.699384 Z M 961.207472 674.699384 " transform="matrix(0.0330761,0,0,0.0330761,0,0)"/>
</g>
</svg>
